X:1
T:Title
%%score { ( 1 3 ) | ( 2 4 ) }
L:1/8
M:4/4
K:C
V:1 treble nm="Grand Piano"
V:3 treble 
V:2 bass 
V:4 bass 
V:1
 z4 z2[Q:1/4=108] G2 | E3 C E2 G2 | [Gc]2 [Gd]2 [Ge]2 c2 | f2 e2 d2 [Gc]2 |[M:3/4] [^Fd]3 G G2 | %5
[M:1/4] G2 |[M:4/4] [Ec]3 [Gc] d2 d2 | e6 [Gc]2 | [Ac]3 [^FA] [Fc]2 [FA]2 | G6 z2 | %10
 [Ge]3 [Gd] [Gc]2 G2 | f3 e d2 G2 | e3 d c2 [FAd]2 | [EGc]3 [DFB] [CEc]4 | %14
 [G,CE]4 [G,DF]2 [C_E^F]2 | [CEG]3 [B,FG] [CG]4 | [CGc]4 [Gd]2 [F_e]2 | [Ge]3 [Ge] e2 c2 | %18
 d4 [^Fd]4 | [Gd]6 z2 | [Ge]4 [Gd]2 [Gc]2 | [Ac]3 [GB] A2 B2 | c4 [Fd]4 |[M:3/4] [Ec]6 |] %24
V:2
 z4 z2 G,2 | E,3 C, E,2 G,2 | [E,G,]2 [D,B,]2 [C,C]2[K:treble] [CEG]2 | %3
 [B,DG]2 [CG]2 [G,B,G]2[K:bass] [E,_B,]2 |[M:3/4] [D,A,]3[K:treble] [G,B,F] [G,B,F]2 |[M:1/4] F2 | %6
[M:4/4][K:bass] [C,G,]3 [E,C][K:treble] [G,B,G]2 [G,B,G]2 | [CG]6[K:bass] [E,C]2 | %8
 [F,C]3 [_E,C] [D,A,]2 [D,C]2 | [G,B,]6 [G,B,]2 | [C,C]3 [D,B,] [E,C]2 [E,C]2 | %11
 [G,B,G]3 [A,C^F] [B,DG]2 [B,D]2 | [CG]3 [G,B,F][K:bass] [A,CE]2 F,2 | G,3 G, C,4 | C,4 C,2 C,2 | %15
 C,3 D, E,4 | E,4 [D,B,]2 [D,B,]2 | [C,C]3 [C,C][K:treble] [CG]2 [A,CE]2 | %18
 [G,B,G]4[K:bass] [D,A,]4 | [G,B,]6 z2 | [C,C]4 [D,B,]2 [E,C]2 | [F,C]3 [F,C] [F,CF]2 [F,A,F]2 | %22
 [G,E]4 [G,,G,]4 |[M:3/4] [C,G,]6 |] %24
V:3
 x8 | x8 | x8 | x8 |[M:3/4] x6 |[M:1/4] z G, |[M:4/4] x8 | x8 | x8 | z2 DE F2 G2 | x8 | x8 | x8 | %13
 x8 | x8 | x8 | x8 | x8 | x8 | x8 | x8 | x8 | x8 |[M:3/4] x6 |] %24
V:4
 x8 | x8 | x6[K:treble] x2 | x6[K:bass] x2 |[M:3/4] x3[K:treble] x3 |[M:1/4] [G,B,] z | %6
[M:4/4][K:bass] x4[K:treble] x4 | x6[K:bass] x2 | x8 | x8 | x8 | x8 | x4[K:bass] x4 | x8 | x8 | %15
 x8 | x8 | x4[K:treble] x4 | x4[K:bass] x4 | x8 | x8 | x8 | x8 |[M:3/4] x6 |] %24

